public/assets/images/twitter.svg

<svg xmlns="http://www.w3.org/2000/svg" width="32" height="32" fill="none" viewBox="0 0 32 32">
  <path
    fill="#03A9F4"
    d="M16 32C24.8366 32 32 24.8366 32 16C32 7.16344 24.8366 0 16 0C7.16344 0 0 7.16344 0 16C0 24.8366 7.16344 32 16 32Z"
  />
  <path
    fill="#fff"
    d="M26.3642 9.57236C25.5846 9.91283 24.76 10.139 23.9158 10.2439C24.8057 9.71622 25.4709 8.88018 25.7852 7.89446C24.9523 8.38885 24.0409 8.73704 23.0905 8.92394C22.5081 8.30109 21.7518 7.86792 20.9199 7.68075C20.0879 7.49359 19.219 7.56109 18.4259 7.87449C17.6329 8.18789 16.9525 8.73267 16.4733 9.43798C15.9941 10.1433 15.7382 10.9765 15.7389 11.8292C15.7359 12.1547 15.7691 12.4795 15.8379 12.7976C14.1473 12.7146 12.4932 12.2758 10.9838 11.51C9.4743 10.7442 8.14335 9.6686 7.07788 8.35341C6.53022 9.28901 6.36054 10.3984 6.60354 11.455C6.84654 12.5115 7.48386 13.4353 8.38525 14.0376C7.71246 14.0195 7.05391 13.8397 6.46525 13.5134V13.5597C6.46714 14.5404 6.80659 15.4906 7.42653 16.2504C8.04648 17.0103 8.90912 17.5336 9.86946 17.7324C9.50603 17.8278 9.13152 17.8746 8.75577 17.8713C8.48522 17.8763 8.2149 17.8523 7.94946 17.7997C8.22459 18.6431 8.75428 19.3806 9.46567 19.9106C10.1771 20.4407 11.0352 20.7373 11.9221 20.7597C10.4192 21.9344 8.56646 22.5725 6.65893 22.5724C6.31905 22.5752 5.97936 22.5556 5.64209 22.5134C7.58708 23.7674 9.85422 24.43 12.1684 24.4208C19.9895 24.4208 24.2652 17.9429 24.2652 12.3281C24.2652 12.1408 24.2652 11.9597 24.2505 11.7787C25.0832 11.1777 25.7995 10.4301 26.3642 9.57236Z"
  />
</svg>

<svg xmlns="http://www.w3.org/2000/svg" width="32" height="32" fill="none"><path fill="#03A9F4" d="M16 32c8.837 0 16-7.163 16-16S24.837 0 16 0 0 7.163 0 16s7.163 16 16 16"/><path fill="#fff" d="M26.364 9.572c-.78.34-1.604.567-2.448.672a4.223 4.223 0 0 0 1.87-2.35 8.488 8.488 0 0 1-2.696 1.03 4.248 4.248 0 0 0-7.351 2.905c-.003.326.03.65.099.969a12.033 12.033 0 0 1-8.76-4.445 4.253 4.253 0 0 0 1.307 5.685 4.193 4.193 0 0 1-1.92-.525v.047a4.27 4.27 0 0 0 3.404 4.172 4.24 4.24 0 0 1-1.113.14c-.27.004-.541-.02-.807-.072a4.292 4.292 0 0 0 3.973 2.96 8.546 8.546 0 0 1-5.263 1.812 7.68 7.68 0 0 1-1.017-.059 11.956 11.956 0 0 0 6.526 1.908c7.822 0 12.097-6.478 12.097-12.093 0-.187 0-.368-.015-.55a8.454 8.454 0 0 0 2.114-2.206"/></svg>
